X: 2
M: 4/4
L: 1/4
K: C
|  [C4 _D4] | [C4 D4] | [C4 _E4] | [C4 E4] | [C4 F4] | [C4 ^F4] | [C4 G4] | [C4 _A4] | [C4 A4] | [C4 _B4] | [C4 B4] | [C4 c4] ||
w: m2         M2        m3         M3        P4        A4/d5      P5        m6         M6        m7         M7        P8
